X:361
T: Fang mian hua
N: C1312
O: China, Hubei
S: MM, ZHONGGUO MINGE XUAN S.149]
N: Pinyin-Text der ersten Strophe vorhanden!
R: Xiaodiao. Fangmianhua qingjing]
M: 2/4
L: 1/16
K: Bb
d2c2d2c2 | B2Bdc4
cc2dd2cd | f4dcBG | G2d2cBG2 | F3DF4
d2c2d2c2 | d2G2B4 | G2d2cBG2 | F2F6
c3df4 | d3cB4 | G2d2cBG2 | F2F6

